X:1120
T:Pigeon on a Gate
M:2/2
K:Em
|:BE (3EEE BdcA|BABd BAFE|D2 (3DDD ADFA|DFAB ADFA|
|BE (3EEE BdcA|BABd BAFE|D2 (3DDD FD ef|dBAF E4:|
|:Beed efed|Be (3eee gfed|dAFA d3B|AF (3FFF DEFA|
|Beed efed|Be (3eee gfed|dAFA d2 ef|dBAF E4:|
